X:3
T:Pavan \340 5: 'Lachrimae'
%%measurenb 0
%%scale 0.7
%%squarebreve
%%footer "$T	Page $P	Gumbleton Music, 2009\n"
%%MIDI program 1 43
%%MIDI program 2 44
%%MIDI program 3 44
%%MIDI program 4 44
%%MIDI program 5 44
C:Thomas Weelkes
P:Treble II
M:C|
L:1/4
K:F clef=treble 
G4 G3 G | F>G A A c3 B |A G ^F G2 F G2-|
G A B c d2 G c-|c B A2 =B4:: F2 B3 A G2-|
G F G B2 A G A-|A G2 ^F G c2 B- |B A G4 E A-|
A G2 ^F/E/ F4 :: F3 E D2 ^C D-|D ^C D2 B A2 G-|
G ^F G>A =B/c/ d2 c-|c _B A G c3 B |A G ^F G2 F G E |
D4 H=B,4 :|]

